X: 40311
T: Tom Bawcock's Eve
R: jig
M: 6/8
K: Dmajor
A,|D2F F3/2E/2F|D2F F3/2E/2F|A2G E2E|B2A FGA|
D2F F3/2E/2F|D2F F3/2E/2F|A2G E2C|D3 D2A||
A2G E2A|B2A F2A|A2G EFG|F2 G A2d|
D2F F3/2E/2F|D2F F3/2E/2F|A2G E2C|D3 Dz||

